vendor/shopware/storefront/Resources/app/storefront/dist/assets/icon/default/avatar-multiple.svg

<svg xmlns="http://www.w3.org/2000/svg" width="24" height="24" viewBox="0 0 24 24">
  <path fill="#758CA3" fill-rule="evenodd" d="M8,3 C5.790861,3 4,4.790861 4,7 C4,9.209139 5.790861,11 8,11 C10.209139,11 12,9.209139 12,7 C12,4.790861 10.209139,3 8,3 Z M8,1 C11.3137085,1 14,3.6862915 14,7 C14,10.3137085 11.3137085,13 8,13 C4.6862915,13 2,10.3137085 2,7 C2,3.6862915 4.6862915,1 8,1 Z M2,22.0990195 C2,22.6513043 1.55228475,23.0990195 1,23.0990195 C0.44771525,23.0990195 0,22.6513043 0,22.0990195 L0,20 C-2.77555756e-16,17.2385763 2.23857625,15 5,15 L11.0007003,15 C13.7621241,15 16.0007003,17.2385763 16.0007003,20 L16.0007003,22.0990195 C16.0007003,22.6513043 15.5529851,23.0990195 15.0007003,23.0990195 C14.4484156,23.0990195 14.0007003,22.6513043 14.0007003,22.0990195 L14.0007003,20 C14.0007003,18.3431458 12.6575546,17 11.0007003,17 L5,17 C3.34314575,17 2,18.3431458 2,20 L2,22.0990195 Z M15.8010678,3.08003137 C15.2598214,2.97016416 14.9101195,2.4423323 15.0199867,1.90108592 C15.129854,1.35983955 15.6576858,1.01013764 16.1989322,1.12000486 C18.9750987,1.68353692 21,4.13340058 21,7 C21,9.86659942 18.9750987,12.3164631 16.1989322,12.8799951 C15.6576858,12.9898624 15.129854,12.6401605 15.0199867,12.0989141 C14.9101195,11.5576677 15.2598214,11.0298358 15.8010678,10.9199686 C17.6494777,10.5447612 19,8.91080725 19,7 C19,5.08919275 17.6494777,3.45523878 15.8010678,3.08003137 Z M19.0007003,17 C18.4484156,17 18.0007003,16.5522847 18.0007003,16 C18.0007003,15.4477153 18.4484156,15 19.0007003,15 C21.7621241,15 24.0007003,17.2385763 24.0007003,20 L24.0007003,22.0990195 C24.0007003,22.6513043 23.5529851,23.0990195 23.0007003,23.0990195 C22.4484156,23.0990195 22.0007003,22.6513043 22.0007003,22.0990195 L22.0007003,20 C22.0007003,18.3431458 20.6575546,17 19.0007003,17 Z"/>
</svg>

<svg xmlns="http://www.w3.org/2000/svg" width="24" height="24" viewBox="0 0 24 24"><path fill="#758CA3" fill-rule="evenodd" d="M8 3C5.7909 3 4 4.7909 4 7c0 2.2091 1.7909 4 4 4 2.2091 0 4-1.7909 4-4 0-2.2091-1.7909-4-4-4zm0-2c3.3137 0 6 2.6863 6 6s-2.6863 6-6 6-6-2.6863-6-6 2.6863-6 6-6zM2 22.099c0 .5523-.4477 1-1 1s-1-.4477-1-1V20c0-2.7614 2.2386-5 5-5h6.0007c2.7614 0 5 2.2386 5 5v2.099c0 .5523-.4477 1-1 1s-1-.4477-1-1V20c0-1.6569-1.3431-3-3-3H5c-1.6569 0-3 1.3431-3 3v2.099zM15.801 3.08c-.5412-.1098-.8909-.6377-.781-1.179.1099-.5412.6377-.8909 1.179-.781C18.975 1.6835 21 4.1334 21 7s-2.0249 5.3165-4.801 5.88c-.5413.1099-1.0691-.2398-1.179-.781-.1099-.5413.2398-1.0692.781-1.179C17.6496 10.5448 19 8.9108 19 7s-1.3505-3.5448-3.199-3.92zM19.0008 17c-.5523 0-1-.4477-1-1s.4477-1 1-1c2.7614 0 5 2.2386 5 5v2.099c0 .5523-.4477 1-1 1s-1-.4477-1-1V20c0-1.6569-1.3431-3-3-3z"/></svg>
